!!!COM: Knope
!!!OTL: Shimmer
!!!YEAR: 2020
!
**kern
*k[]
*A:
*
*
*M(4/4)
=1=1
8cc#
8b
8a
[8e
2]e
=2=2
4
8
8f#
8.e
[16c#
8]c#
8d
=3=3
8.e
[16d
8]d
8c#
8B
8c#
4A
=4=4
8A
8c#
8
16g#
16a
8g#
[8e
8]e
[8f#
=5=5
8]f#
[8e
8]e
8c#
8.B
[16c#
8]c#
8A
=6=6
4
8
8e
8.c#
[16A
8]A
[8E
=7=7
8]E
[8F#
8]F#
[8G#
8]G#
8G#
8F#
[8E
=8=8
8]E
[8B
8]B
8A
8a
8g#
8f#
8e
*-
